**kern
*part1
*staff1
*clefG2
*k[b-e-a-]
*M2/4
*>A
=1-
4g
(<8qbn/
16a-LL)
16g
16a-
16fJJ
=2
(<8qa-/
8gL)
8gJ
(<8qbn/
16a-LL)
16g
16a-
16fJJ
=3
8gL
(>8qbn/
8a-)
8bn
8ccJ
=4
(>16qdd/LL
16qee-/JJ
16ddLL)
16cc
16bn
16a-JJ
(<16qb/LL
16qcc/JJ
16bLL)
16a-
(<16qg/LL
16qa-/JJ
16g)
16fJJ
=5
4g
(<8qbn/
16a-LL)
16g
16a-
16fJJ
=6
(<8qa-/
8gL)
8gJ
(<8qbn/
16a-LL)
16g
16a-
16fJJ
=7
16enLL
16f
16g
16a-JJ
16bnLL
16cc
16b
16a-JJ
=8
4g
8r
8d
=9:|!
(<8qa-/
2g)
=10!|:
*>B
*k[b-]
(<8qc/
4a)
24aLL
24b-
24a
16g
16fJJ
=11
8gL
(<8qf#X/
8gJ)
4cc
=12
8a
(<8qc/
4a)
16gLL
16fnJJ
=13
16eLL
16f
16g
16eJJ
8c
8r
=14
(<8qc/
4a)
24aLL
24b-
24a
16g
16fJJ
=15
8gL
8gJ
[4dd
=16
16ddLL]
16cc
16bn
16a-XJJ
16bLL
16a-
16g
16fJJ
=17
(<8qa-X/
2g)
=18:|!
4g
4r
=19||
*k[b-e-a-]
2bn
=20
2dd
=21
(>8qbn/
4dd)
4dd
=22
4dd
4dd
=23!|:
*>C
8bnL
16a-L
16bJJ
8a-L
8gJ
=24
16bnLL
16a-J
8bJ
8a-L
8gJ
=25
8gL
16gL
16gJJ
16bnLL
16g
16b
16ddJJ
=26
4.cc
8cc
=27
16bnLL
16bJ
8bJ
16a-LL
16a-J
8a-J
=28
16gLL
16g
16g
16a-JJ
8.fL
32gLL
32fJJJ
=29
16enLL
16f
16g
16a-JJ
16bnLL
16cc
8qcc/
16b
16a-JJ
=30
2g
=31
2bn
=32
2dd
=33
2gg
=34:|!
(<16a-LL
16gJJ)
4.g
==
*-
!!!RDF**kern: > = above
!!!RDF**kern: < = below
!!!! MATCHES : 0
